icons/lines/cloud-lightning.svg

<svg xmlns="http://www.w3.org/2000/svg" width="24" height="24" viewBox="0 0 24 24" fill="none" stroke="currentColor" stroke-width="2" stroke-linecap="round" stroke-linejoin="round" >
  <path d="M16.6102 20C17.9502 20.01 19.2402 19.51 20.2302 18.61C23.5002 15.75 21.7502 10.01 17.4402 9.47001C15.9002 0.13001 2.43022 3.67001 5.62022 12.56" stroke-miterlimit="10"/>
  <path d="M7.27986 12.97C6.74986 12.7 6.15986 12.56 5.56986 12.57C0.909864 12.9 0.919864 19.68 5.56986 20.01" stroke-miterlimit="10"/>
  <path d="M15.8198 9.88998C16.3398 9.62998 16.8998 9.48998 17.4798 9.47998" stroke-miterlimit="10"/>
  <path d="M9.23008 19.16H10.2301V21.49C10.2301 21.83 10.6601 22 10.8801 21.74L13.3301 18.95C13.6301 18.61 13.5001 18.33 13.0501 18.33H12.0501V16C12.0501 15.66 11.6201 15.49 11.4001 15.75L8.95008 18.54C8.65008 18.88 8.78008 19.16 9.23008 19.16Z" stroke-miterlimit="10"/>
  </svg>

<svg xmlns="http://www.w3.org/2000/svg" width="24" height="24" viewBox="0 0 24 24" fill="none" stroke="currentColor" stroke-width="2" stroke-linecap="round" stroke-linejoin="round">
  <path d="M10.23 19.16v2.33a.373.373 0 0 0 .65.25l2.45-2.79c.3-.34.17-.62-.28-.62h-1V16a.373.373 0 0 0-.65-.25l-2.45 2.79c-.3.34-.17.62.28.62z" />
  <path d="M15.82 9.89a3.84 3.84 0 0 1 1.66-.41" />
  <path d="M16.61 20a5.32 5.32 0 0 0 3.62-1.39c3.27-2.86 1.52-8.6-2.79-9.14C15.9.13 2.43 3.67 5.62 12.56" />
  <path d="M7.28 12.97a3.64 3.64 0 0 0-1.71-.4c-4.66.33-4.65 7.11 0 7.44" />
</svg>
